X: 4261
T: Highland Whisky.   a Strathspey.
%R: strathspey
B: Niel Gow & Sons "Complete Repository" v.4 p.26 #1
Z: 2021 John Chambers <jc:trillian.mit.edu>
M: C
L: 1/8
K: A
% - - - - - - - - - -
% Voice 1 formatted for compactness and proofreading.
V: 1 staves=2
E |\
A<A A<A A>Bce | B<B B>c ~d>efa | [AC]<[AC] [AC]>B A>Bcd | ef/g/ a>f {d}c>BA :| e | {d}cB/A/ e>A f>AeA | G<BTB>A GBBe |
(d/c/B/A/) eA fAeA | fg/a/ a>d {d}c>BAe | {d}cB/A/ e>A f>Ae>A | G<BTB>A GBB>c | A<cB<d cedf | ef/g/ a>d {d}c>BA |]
% - - - - - - - - - -
% Voice 2 preserves the book's staff layout.
V: 2 clef=bass middle=d
z |\
A2A2 A2A2 | B2B2 B2d2 | c2A2 A2B2 | c2d2 e2A :| z | a2c'2 d'2c'2 | e'2e2 e2g2 |
a2c'2 d'2c'2 | c'2d'2 e'2a2 | a2c'2 d'2c'2 | e'2e2 e2g2 | a2g2 a2d2 | c2d2 e2A |]


